app/assets/images/heroicons/micro/document-currency-yen.svg

<svg width="16" height="16" viewBox="0 0 16 16" fill="none" xmlns="http://www.w3.org/2000/svg">
<path fill-rule="evenodd" clip-rule="evenodd" d="M2.5 3.5C2.5 2.67157 3.17157 2 4 2H8.87868C9.2765 2 9.65804 2.15804 9.93934 2.43934L13.0607 5.56066C13.342 5.84197 13.5 6.2235 13.5 6.62132V12.5C13.5 13.3284 12.8284 14 12 14H4C3.17157 14 2.5 13.3284 2.5 12.5V3.5ZM6.16344 5.30102C5.91491 4.96965 5.44481 4.90249 5.11344 5.15102C4.78207 5.39955 4.71491 5.86965 4.96344 6.20102L6.3125 7.99977H5C4.58579 7.99977 4.25 8.33556 4.25 8.74977C4.25 9.16398 4.58579 9.49977 5 9.49977H7.25V10.4998H5C4.58579 10.4998 4.25 10.8356 4.25 11.2498C4.25 11.664 4.58579 11.9998 5 11.9998H7.25V12.2498C7.25 12.664 7.58579 12.9998 8 12.9998C8.41421 12.9998 8.75 12.664 8.75 12.2498V11.9998H11C11.4142 11.9998 11.75 11.664 11.75 11.2498C11.75 10.8356 11.4142 10.4998 11 10.4998H8.75V9.49977H11C11.4142 9.49977 11.75 9.16398 11.75 8.74977C11.75 8.33556 11.4142 7.99977 11 7.99977H9.6875L11.0366 6.20102C11.2851 5.86965 11.2179 5.39955 10.8866 5.15102C10.5552 4.90249 10.0851 4.96965 9.83656 5.30102L8 7.74977L6.16344 5.30102Z" fill="black"/>
</svg>

<svg xmlns="http://www.w3.org/2000/svg" viewBox="0 0 16 16" fill="currentColor" aria-hidden="true" data-slot="icon">
  <path fill-rule="evenodd" d="M2.5 3.5A1.5 1.5 0 0 1 4 2h4.879a1.5 1.5 0 0 1 1.06.44l3.122 3.12a1.5 1.5 0 0 1 .439 1.061V12.5A1.5 1.5 0 0 1 12 14H4a1.5 1.5 0 0 1-1.5-1.5v-9Zm3.663 1.801a.75.75 0 1 0-1.2.9L6.313 8H5a.75.75 0 0 0 0 1.5h2.25v1H5A.75.75 0 0 0 5 12h2.25v.25a.75.75 0 0 0 1.5 0V12H11a.75.75 0 0 0 0-1.5H8.75v-1H11A.75.75 0 0 0 11 8H9.687l1.35-1.799a.75.75 0 0 0-1.2-.9L8 7.75 6.163 5.3Z" clip-rule="evenodd"/>
</svg>
